app/img/icons/mother.svg

<svg width="63" height="82" viewBox="0 0 63 82" fill="none" xmlns="http://www.w3.org/2000/svg">
<path d="M22.087 54.8218C22.087 54.8218 23.4202 51.7639 26.4597 51.9535C27.2548 52.0074 28.0225 52.2653 28.6888 52.7024C29.3552 53.1395 29.8976 53.7409 30.2637 54.4487C30.5631 55.0298 30.7398 55.6663 30.7829 56.3185C30.8261 56.9708 30.7347 57.625 30.5144 58.2404C30.3225 58.8119 30.0507 59.3534 29.7072 59.8488C29.5773 60.0403 29.4364 60.2241 29.2852 60.3993C28.2875 61.5076 27.2126 62.5437 26.0683 63.4999C26.0683 63.4999 22.8331 66.093 22.0748 67.8115C21.3226 66.093 18.0874 63.4999 18.0874 63.4999C16.9452 62.539 15.8742 61.4966 14.8827 60.3809C14.7298 60.2036 14.5892 60.0201 14.4546 59.8305C14.1107 59.3362 13.8408 58.7944 13.6535 58.2221C13.4341 57.6067 13.3427 56.953 13.3847 56.301C13.4268 55.649 13.6015 55.0125 13.8981 54.4303C14.2673 53.7212 14.8129 53.119 15.4824 52.682C16.1518 52.2449 16.9226 51.9877 17.7204 51.9352C20.7599 51.7517 22.087 54.8218 22.087 54.8218Z" stroke="#D90002" stroke-miterlimit="10" stroke-linecap="round"/>
<path d="M52.0052 62.4297C52.0052 62.4297 53.0877 63.7874 51.0267 65.1451" stroke="#344154" stroke-linecap="round" stroke-linejoin="round"/>
<path d="M19.4939 38.4561C16.9084 39.1865 14.1443 38.9377 11.7308 37.7574C9.31717 36.5771 7.42361 34.5483 6.41248 32.0591C7.89599 31.4844 9.13732 30.4179 9.92899 29.0379C13.6412 23.1485 11.2439 14.8862 14.901 8.96015L14.9439 8.89287C16.3454 6.5994 18.3124 4.70434 20.6566 3.38932C23.0007 2.07429 25.6433 1.38338 28.3311 1.38281H30.0985C32.7849 1.38619 35.4256 2.07834 37.7683 3.39315C40.111 4.70796 42.0774 6.6015 43.4796 8.89287L43.5225 8.96015C47.1919 14.8862 44.7456 23.1485 48.4884 29.0379C49.2816 30.4166 50.5224 31.4827 52.0049 32.0591C50.9963 34.546 49.106 36.5736 46.6958 37.7539C44.2856 38.9341 41.5248 39.1842 38.9418 38.4561" stroke="#344154" stroke-miterlimit="10" stroke-linecap="round"/>
<path d="M34.0554 38.7251C35.1562 41.3365 35.6577 43.9846 41.6817 45.7031C43.8711 46.3147 44.3542 46.4247 46.5742 47.0363" stroke="#344154" stroke-miterlimit="10" stroke-linecap="round"/>
<path d="M41.2051 22.4635C40.5568 26.5794 38.7588 32.6217 36.5205 36.022C35.7434 37.2901 34.6603 38.3427 33.3706 39.0832C32.0808 39.8237 30.6257 40.2284 29.1388 40.2602V40.2602C27.653 40.2303 26.1985 39.8276 24.9087 39.0893C23.619 38.3509 22.5353 37.3004 21.7572 36.0343V36.0343C19.3847 32.3488 17.8637 28.1808 17.305 23.8335C15.8739 13.0026 27.4142 12.6968 34.4289 17.9502C34.4289 17.9502 38.7955 21.2649 41.2173 22.4758" stroke="#344154" stroke-miterlimit="10" stroke-linecap="round"/>
<path d="M24.3499 38.7251C23.2613 41.3365 22.7537 43.9846 16.7297 45.6909C14.5403 46.3024 12.3326 46.914 10.1309 47.5256C8.99677 47.843 7.96184 48.4433 7.1232 49.2702C6.28455 50.0971 5.66967 51.1235 5.33622 52.253L1.11028 73.6579C0.939255 74.5508 0.967441 75.4704 1.19283 76.3512C1.41821 77.2319 1.83524 78.0521 2.41414 78.7531C2.99304 79.4541 3.71955 80.0186 4.54181 80.4065C5.36406 80.7943 6.26179 80.9959 7.17092 80.9967H33.5234C36.4859 81.0324 39.4403 80.6808 42.3117 79.9509C45.977 78.9736 49.4579 77.4035 52.6166 75.303C55.4553 73.5208 57.8921 71.1673 59.7719 68.3923C61.0166 66.503 61.7668 64.3315 61.9538 62.0768C62.1408 59.8222 61.7585 57.5567 60.8422 55.4882C59.8907 53.2542 58.2146 51.4058 56.0842 50.2409C54.6809 49.4868 53.1004 49.1245 51.5088 49.1923C49.9171 49.2601 48.3731 49.7555 47.0391 50.6262C43.4736 52.9746 43.7611 56.5951 44.1708 58.3626C44.1708 58.3626 45.131 61.4938 43.8345 64.1725" stroke="#344154" stroke-linecap="round" stroke-linejoin="round"/>
<path d="M50.733 68.747C41.9448 68.7164 37.9574 63.3774 37.9574 63.3774C35.319 64.3563 32.835 65.7095 30.5818 67.3954C29.217 68.343 28.1833 69.6944 27.6261 71.2598C27.0689 72.8251 27.016 74.5257 27.4751 76.1225L28.2028 78.0062" stroke="#344154" stroke-linecap="round" stroke-linejoin="round"/>
</svg>

<svg width="63" height="82" fill="none" xmlns="http://www.w3.org/2000/svg"><path d="M22.087 54.822s1.333-3.058 4.373-2.869a4.635 4.635 0 013.804 2.496 4.77 4.77 0 01.25 3.791 6.396 6.396 0 01-.807 1.609c-.13.191-.27.375-.422.55a31.538 31.538 0 01-3.217 3.1s-3.235 2.594-3.993 4.312c-.752-1.718-3.988-4.311-3.988-4.311a30.896 30.896 0 01-3.204-3.12 6.184 6.184 0 01-1.23-2.159 4.802 4.802 0 01.245-3.79 4.655 4.655 0 013.822-2.496c3.04-.183 4.367 2.887 4.367 2.887z" stroke="#D90002" stroke-miterlimit="10" stroke-linecap="round"/><path d="M52.005 62.43s1.083 1.357-.978 2.715" stroke="#344154" stroke-linecap="round" stroke-linejoin="round"/><path d="M19.494 38.456A10.916 10.916 0 016.412 32.06a6.947 6.947 0 003.517-3.021c3.712-5.89 1.315-14.152 4.972-20.078l.043-.067a15.692 15.692 0 0113.387-7.51H30.1a15.711 15.711 0 0113.38 7.51l.044.067c3.669 5.926 1.223 14.188 4.965 20.078a6.972 6.972 0 003.517 3.021 10.904 10.904 0 01-13.063 6.397" stroke="#344154" stroke-miterlimit="10" stroke-linecap="round"/><path d="M34.055 38.725c1.101 2.611 1.603 5.26 7.627 6.978 2.19.612 2.672.722 4.892 1.333" stroke="#344154" stroke-miterlimit="10" stroke-linecap="round"/><path d="M41.205 22.463c-.648 4.116-2.446 10.159-4.684 13.559a8.88 8.88 0 01-7.382 4.238v0a8.874 8.874 0 01-7.382-4.226v0a29.484 29.484 0 01-4.452-12.2c-1.431-10.831 10.11-11.137 17.124-5.884 0 0 4.366 3.315 6.788 4.526" stroke="#344154" stroke-miterlimit="10" stroke-linecap="round"/><path d="M24.35 38.725c-1.089 2.611-1.596 5.26-7.62 6.966-2.19.611-4.397 1.223-6.6 1.835a6.953 6.953 0 00-4.794 4.727L1.11 73.658a6.177 6.177 0 006.06 7.339h26.353a34.009 34.009 0 008.789-1.046 34.803 34.803 0 0010.305-4.648 24.157 24.157 0 007.155-6.91 13.509 13.509 0 001.07-12.905 10.807 10.807 0 00-4.758-5.247 8.869 8.869 0 00-9.045.385c-3.565 2.349-3.278 5.97-2.868 7.737 0 0 .96 3.13-.337 5.81" stroke="#344154" stroke-linecap="round" stroke-linejoin="round"/><path d="M50.733 68.747c-8.788-.03-12.776-5.37-12.776-5.37a29.357 29.357 0 00-7.375 4.018 7.95 7.95 0 00-3.107 8.728l.728 1.883" stroke="#344154" stroke-linecap="round" stroke-linejoin="round"/></svg>
